assets/logos/vine.svg

<svg width="80" height="80" viewBox="0 0 80 80" fill="none" xmlns="http://www.w3.org/2000/svg">
<path d="M71.1362 39.4139C70.9932 38.4117 70.0808 37.704 69.0746 37.8153C68.3125 37.8997 67.5374 37.9592 66.7919 37.9592C61.8828 37.9592 54.8751 37.5877 50.5426 34.6964C50.1659 34.435 49.8067 34.1599 49.4689 33.8691C46.2182 31.0728 45.512 27.6283 45.4924 25.231C45.4662 22.059 46.2171 19.7203 47.7244 18.2798C49.064 16.9994 50.701 16.732 51.285 16.732C51.3148 16.732 51.3416 16.7327 51.3658 16.734C51.5474 16.7438 53.1754 16.8794 54.3699 18.6296C55.2925 19.9811 56.4253 23.0522 54.9983 29.3449C54.8455 30.0185 55.2179 30.6971 55.8655 30.9375C58.1124 31.7717 60.9423 32.1103 63.1346 32.2432C63.8084 32.2841 64.4142 31.8261 64.5575 31.1665C65.2166 28.1324 65.491 25.3207 65.3745 22.766C65.2033 19.0129 64.2053 15.7751 62.4083 13.1426C59.9397 9.52635 56.0061 7.23584 51.8856 7.01551C48.9281 6.85728 44.5142 7.88502 40.9998 11.2443C38.5756 13.5612 35.6991 17.8825 35.7603 25.3116C35.8118 31.5487 38.4263 37.2081 43.1221 41.2475C44.5568 42.4817 46.398 43.7442 48.7285 44.8294C46.1939 49.3112 43.4501 53.0475 41.1705 55.8276C39.0365 58.43 37.0691 60.4971 35.5993 61.9438C28.2059 56.0741 23.8329 45.0848 21.4002 36.4215C19.0214 27.9495 18.047 20.145 17.7157 16.8764C17.6244 15.9747 16.8337 15.3089 15.9295 15.37L12.7152 15.5869L17.5705 15.2621L9.56991 15.7971C8.62274 15.8604 7.91574 16.6932 8.00812 17.6378C8.3511 21.1476 9.37593 29.5399 11.9809 38.8761C13.9869 46.0662 16.5248 52.3405 19.524 57.5247C23.4649 64.3367 28.2454 69.3304 33.7331 72.3667C34.4705 72.7747 35.2812 72.9752 36.0882 72.9752C37.1931 72.9752 38.2907 72.5994 39.1815 71.8662C39.3564 71.7223 43.5207 68.2724 48.5229 62.2091C51.446 58.666 54.0767 54.9335 56.3423 51.1154C57.0518 49.9197 57.726 48.7144 58.3637 47.5015C61.781 47.9323 65.7491 47.9812 70.3425 47.4598C71.3899 47.3409 72.1299 46.3753 71.9809 45.3318L71.1362 39.4139Z" fill="#04B086"/>
</svg>

<svg xmlns="http://www.w3.org/2000/svg" width="80" height="80" fill="none" viewBox="0 0 80 80"><path fill="#04b086" d="M71.136 39.414a1.874 1.874 0 0 0-2.061-1.599c-.763.085-1.538.144-2.283.144-4.91 0-11.917-.371-16.25-3.263a13 13 0 0 1-1.073-.827c-3.25-2.796-3.957-6.24-3.977-8.638-.026-3.172.725-5.51 2.232-6.951 1.34-1.28 2.977-1.548 3.561-1.548q.045 0 .08.002c.182.01 1.81.145 3.005 1.896.922 1.351 2.055 4.422.628 10.715-.152.674.22 1.352.867 1.593 2.247.834 5.077 1.172 7.27 1.305a1.37 1.37 0 0 0 1.423-1.077c.659-3.034.933-5.845.816-8.4-.17-3.753-1.169-6.99-2.966-9.623-2.468-3.617-6.402-5.907-10.522-6.127-2.958-.159-7.372.869-10.886 4.228-2.424 2.317-5.3 6.639-5.24 14.068.052 6.237 2.666 11.896 7.362 15.936 1.435 1.234 3.276 2.496 5.606 3.581a78.3 78.3 0 0 1-7.558 10.999 78 78 0 0 1-5.57 6.116c-7.394-5.87-11.767-16.86-14.2-25.522-2.379-8.472-3.353-16.277-3.684-19.546a1.68 1.68 0 0 0-1.787-1.506l-3.214.217 4.855-.325-8 .535a1.68 1.68 0 0 0-1.562 1.84c.343 3.51 1.368 11.903 3.973 21.24 2.006 7.19 4.544 13.463 7.543 18.648 3.94 6.812 8.721 11.805 14.21 14.842a4.86 4.86 0 0 0 5.448-.5c.174-.145 4.339-3.595 9.34-9.658a88.4 88.4 0 0 0 7.82-11.094 80 80 0 0 0 2.022-3.614c3.417.431 7.385.48 11.979-.041a1.874 1.874 0 0 0 1.638-2.128z"/></svg>
